client/static/images/footer/fb.svg

<svg viewBox="0 0 16.6 31" xmlns="http://www.w3.org/2000/svg"><path d="m15.52 17.44.86-5.61h-5.38v-3.64c0-1.54.76-3 3.17-3h2.43v-4.81a29.74 29.74 0 0 0 -4.34-.38c-4.43 0-7.33 2.69-7.33 7.55v4.28h-4.93v5.61h4.93v13.56h6.07v-13.56z" fill="#ccc"/></svg>

<svg xmlns="http://www.w3.org/2000/svg" viewBox="0 0 16.6 31"><defs><style>.cls-1{fill:#ccc;}</style></defs><g id="圖層_2" data-name="圖層 2"><g id="圖層_1-2" data-name="圖層 1"><path class="cls-1" d="M15.52,17.44l.86-5.61H11V8.19c0-1.54.76-3,3.17-3H16.6V.38A29.74,29.74,0,0,0,12.26,0C7.83,0,4.93,2.69,4.93,7.55v4.28H0v5.61H4.93V31H11V17.44Z"/></g></g></svg>
